icons/nim-dark.svg

<svg xmlns="http://www.w3.org/2000/svg" width="256" height="256" fill="none" viewBox="0 0 256 256"><rect width="256" height="256" fill="#282828" rx="60"/><path fill="#F3D400" d="M128.726 46.0002C128.726 46.0002 120.003 53.2876 111.111 60.5257C101.963 60.2185 84.0209 62.3839 74.2991 66.1217C65.3433 60.1235 57.4741 53.5009 57.4741 53.5009C57.4741 53.5009 50.7495 65.7312 46.5207 72.9083C40.2493 76.4345 33.9527 80.4007 28.3407 85.6481C21.8135 82.908 14.247 79.5672 14 79.4568C22.644 97.8891 28.4549 116.346 44.2623 127.439C69.4287 85.4202 186.374 89.2929 212.061 127.201C228.661 118.047 235.118 98.3533 241.646 80.1711C240.93 80.4204 232.047 83.5643 226.289 85.8861C222.851 81.9291 214.747 75.8451 210.141 72.9082C205.773 64.4506 199.414 53.0248 199.414 53.0248C199.414 53.0248 191.883 58.9464 183.154 65.4072C171.36 63.1058 157.096 60.3095 145.1 61.0019C136.933 53.9054 128.726 46 128.726 46V46.0002Z"/><path fill="#FFE953" d="M22.9374 118.628C22.9374 118.628 35.189 149.99 43.698 171.782C79.7536 222.071 171.825 225.567 211.964 172.756C221.462 150.126 234.276 118.323 234.276 118.323C223.979 134.45 207.22 145.583 196.899 151.58C189.565 155.828 172.642 158.395 172.642 158.395L128.214 134.056L83.5303 157.908C83.5303 157.908 66.8327 155.072 59.2734 151.337C44.0168 142.727 33.7555 132.554 22.9374 118.628Z"/></svg>

<svg xmlns="http://www.w3.org/2000/svg" width="256" height="256" fill="none"><rect width="256" height="256" fill="#282828" rx="60"/><path fill="#F3D400" d="M128.726 46s-8.723 7.288-17.615 14.526c-9.148-.308-27.09 1.858-36.812 5.596C65.343 60.124 57.474 53.5 57.474 53.5S50.75 65.73 46.521 72.908c-6.272 3.526-12.568 7.493-18.18 12.74A969 969 0 0 1 14 79.457c8.644 18.432 14.455 36.889 30.262 47.982 25.167-42.019 142.112-38.146 167.799-.238 16.6-9.154 23.057-28.848 29.585-47.03-.716.25-9.599 3.393-15.357 5.715-3.438-3.957-11.542-10.04-16.148-12.978-4.368-8.457-10.727-19.883-10.727-19.883s-7.531 5.921-16.26 12.382c-11.794-2.301-26.058-5.097-38.054-4.405C136.933 53.905 128.726 46 128.726 46"/><path fill="#FFE953" d="M22.937 118.628s12.252 31.362 20.761 53.154c36.056 50.289 128.127 53.785 168.266.974 9.498-22.63 22.312-54.433 22.312-54.433-10.297 16.127-27.056 27.26-37.377 33.257-7.334 4.248-24.257 6.815-24.257 6.815l-44.428-24.339-44.684 23.852s-16.697-2.836-24.257-6.571c-15.256-8.61-25.518-18.783-36.336-32.709"/></svg>
